src/assets/filled/LockCircle.svg

<svg width="24" height="24" viewBox="0 0 24 24"  xmlns="http://www.w3.org/2000/svg">
<path d="M12 7.75C10.11 7.75 9.75 8.54 9.75 10V10.62H14.25V10C14.25 8.54 13.89 7.75 12 7.75Z" />
<path d="M11.9999 15.0999C12.6074 15.0999 13.0999 14.6074 13.0999 13.9999C13.0999 13.3924 12.6074 12.8999 11.9999 12.8999C11.3924 12.8999 10.8999 13.3924 10.8999 13.9999C10.8999 14.6074 11.3924 15.0999 11.9999 15.0999Z" />
<path d="M12 2C6.48 2 2 6.48 2 12C2 17.52 6.48 22 12 22C17.52 22 22 17.52 22 12C22 6.48 17.52 2 12 2ZM17.38 14.5C17.38 16.7 16.7 17.38 14.5 17.38H9.5C7.3 17.38 6.62 16.7 6.62 14.5V13.5C6.62 11.79 7.03 11 8.25 10.73V10C8.25 9.07 8.25 6.25 12 6.25C15.75 6.25 15.75 9.07 15.75 10V10.73C16.97 11 17.38 11.79 17.38 13.5V14.5Z" />
</svg>

<?xml version="1.0" encoding="UTF-8"?>
<svg width="24" height="24" viewBox="0 0 24 24" xmlns="http://www.w3.org/2000/svg">
 <path d="m12 7.75c-1.89 0-2.25 0.79-2.25 2.25v0.62h4.5v-0.62c0-1.46-0.36-2.25-2.25-2.25z"/>
 <path d="m12 15.1c0.6075 0 1.1-0.4925 1.1-1.1s-0.4925-1.1-1.1-1.1-1.1 0.4925-1.1 1.1 0.4925 1.1 1.1 1.1z"/>
 <path d="m12 2c-5.52 0-10 4.48-10 10s4.48 10 10 10 10-4.48 10-10-4.48-10-10-10zm5.38 12.5c0 2.2-0.68 2.88-2.88 2.88h-5c-2.2 0-2.88-0.68-2.88-2.88v-1c0-1.71 0.41-2.5 1.63-2.77v-0.73c0-0.93 0-3.75 3.75-3.75s3.75 2.82 3.75 3.75v0.73c1.22 0.27 1.63 1.06 1.63 2.77v1z"/>
</svg>
